packages/components/src/images/icons/discreet.svg

<svg height="16" viewBox="0 0 16 16" width="16" xmlns="http://www.w3.org/2000/svg"><path d="m6.63036117 9.49928607c.3239619.21786568.78474244.53679553.99962512.70563193-.02502035-.1657598-.05242739-.43414734-.07675712-.70407865l1.0551385-.00009646c-.02432597.27475678-.05172686.54664631-.07674204.71237191.21240223-.1709579.68019503-.49580502 1.00191401-.71379638l1.13270076.00068978c.0405492.07015573.0653852.14835246.0703033.2295.0409836.22950819-.0655738.4754098-.2868853.5901639-.0163934.0163935-1.04918031.5163935-1.45901637.6803279.40983606.1639344 1.45901637.6721311 1.48360657.6967213.2213115.1147541.3032787.3196721.2704918.5491803-.0163935.3442623-.2704918.5327869-.5491803.5491804-.1147541.0081967-.22950824-.0163935-.33606561-.0819672-.02459017-.0081968-.99180328-.6557378-1.32786886-.9262296.06557377.4344263.14754099 1.6065574.14754099 1.6393443 0 .3032787-.27049181.5737705-.59836066.5737705s-.60655738-.2540984-.59836065-.5983607c0-.0245901.08196721-1.1721311.13934426-1.6147541-.33606558.2786886-1.30327869.9262296-1.32786885.9344263-.10655738.0655737-.22131148.0901639-.33606558.0819672-.28688524-.0163935-.53278688-.2131148-.54918033-.5737705-.0409836-.2213115.06557377-.4262295.27049181-.5327869.02459016-.0163934 1.09016393-.5327869 1.5-.6967213-.40983607-.1639344-1.45081968-.6639344-1.48360656-.6885246-.21311475-.1147541-.31967213-.36065573-.27868853-.59016392.00457651-.0800888.02767831-.15506717.06466877-.22190346zm6.61963883-2.74928607c.4142136 0 .75.33578644.75.75s-.3357864.75-.75.75h-10.5c-.41421356 0-.75-.33578644-.75-.75s.33578644-.75.75-.75zm-3.47015396-4.75.1.1v1l-.1.1-2.271-.001-.092.828.07279355-.03135452c.15166584-.05777794.3367019-.09712428.55768694-.1105517l.17251951-.00509378c1.01138536 0 1.79222956.67051122 1.95055916 1.61956037l-1.28280842.0000369c-.12530228-.28266501-.40650647-.45959727-.78775074-.45959727-.3625492 0-.64866631.15327702-.84.36h-1.064l-.09950372-.10995037.32-3.2.09950372-.09004963z" fill-rule="evenodd"/></svg>

<?xml version="1.0" encoding="UTF-8"?>
<svg width="16px" height="16px" viewBox="0 0 16 16" version="1.1" xmlns="http://www.w3.org/2000/svg" xmlns:xlink="http://www.w3.org/1999/xlink">
    <!-- Generator: Sketch 63.1 (92452) - https://sketch.com -->
    <title>Icon/Features/Discrete</title>
    <desc>Created with Sketch.</desc>
    <g id="Icon/Features/Discrete" stroke="none" stroke-width="1" fill="none" fill-rule="evenodd">
        <path d="M6.63036117,9.49928607 C6.95432307,9.71715175 7.41510361,10.0360816 7.62998629,10.204918 C7.60496594,10.0391582 7.5775589,9.77077066 7.55322917,9.50083935 L8.60836767,9.50074289 C8.5840417,9.77549967 8.55664081,10.0473892 8.53162563,10.2131148 C8.74402786,10.0421569 9.21182066,9.71730978 9.53353964,9.49931842 L10.6662404,9.5000082 C10.7067896,9.57016393 10.7316256,9.64836066 10.7365437,9.7295082 C10.7775273,9.95901639 10.6709699,10.204918 10.4496584,10.3196721 C10.433265,10.3360656 9.40047809,10.8360656 8.99064203,11 C9.40047809,11.1639344 10.4496584,11.6721311 10.4742486,11.6967213 C10.6955601,11.8114754 10.7775273,12.0163934 10.7447404,12.2459016 C10.7283469,12.5901639 10.4742486,12.7786885 10.1955601,12.795082 C10.080806,12.8032787 9.96605186,12.7786885 9.85949449,12.7131148 C9.83490432,12.704918 8.86769121,12.057377 8.53162563,11.7868852 C8.5971994,12.2213115 8.67916662,13.3934426 8.67916662,13.4262295 C8.67916662,13.7295082 8.40867481,14 8.08080596,14 C7.75293711,14 7.47424858,13.7459016 7.48244531,13.4016393 C7.48244531,13.3770492 7.56441252,12.2295082 7.62178957,11.7868852 C7.28572399,12.0655738 6.31851088,12.7131148 6.29392072,12.7213115 C6.18736334,12.7868852 6.07260924,12.8114754 5.95785514,12.8032787 C5.6709699,12.7868852 5.42506826,12.5901639 5.40867481,12.2295082 C5.36769121,12.0081967 5.47424858,11.8032787 5.67916662,11.6967213 C5.70375678,11.6803279 6.76933055,11.1639344 7.17916662,11 C6.76933055,10.8360656 5.72834694,10.3360656 5.69556006,10.3114754 C5.48244531,10.1967213 5.37588793,9.95081967 5.41687153,9.72131148 C5.42144804,9.64122268 5.44454984,9.56624431 5.4815403,9.49940802 Z M13.25,6.75 C13.6642136,6.75 14,7.08578644 14,7.5 C14,7.91421356 13.6642136,8.25 13.25,8.25 L2.75,8.25 C2.33578644,8.25 2,7.91421356 2,7.5 C2,7.08578644 2.33578644,6.75 2.75,6.75 L13.25,6.75 Z M9.77984604,2 L9.87984604,2.1 L9.87984604,3.1 L9.77984604,3.2 L7.50884604,3.199 L7.41684604,4.027 L7.48963959,3.99564548 C7.64130543,3.93786754 7.82634149,3.8985212 8.04732653,3.88509378 L8.04732653,3.88509378 L8.21984604,3.88 C9.2312314,3.88 10.0120756,4.55051122 10.1704052,5.49956037 L8.88759678,5.49959727 C8.7622945,5.21693226 8.48109031,5.04 8.09984604,5.04 C7.73729684,5.04 7.45117973,5.19327702 7.25984604,5.4 L7.25984604,5.4 L6.19584604,5.4 L6.09634232,5.29004963 L6.41634232,2.09004963 L6.51584604,2 L9.77984604,2 Z" id="*-2" ></path>
    </g>
</svg>
